X: 19035
T: Inver Bank
R: jig
M: 6/8
K: Bminor
de|:fff fed|BBB BAG|EFF BAG|FGA Bde|
fff fed|BBB BAG|EFF BAG|1 FGA Bde:|2 FGA BAG||
|:F2F BFD|FFF BFG|FFF cFG|F2F dBG|
F2F BFD|FFF BFG|FFF cAG|1 FGA BAG:|2 FGA Bde||

